X:1
T:Images
T:Images
T:Reflets dans l'eau.
T:C. Debussy
T:This score has been released into the Public Domain by the typesetter.
T:This score has been released into the Public Domain by the typesetter.
T:This score has been released into the Public Domain by the typesetter.
T:This score has been released into the Public Domain by the typesetter.
T:This score has been released into the Public Domain by the typesetter.
T:This score has been released into the Public Domain by the typesetter.
T:This score has been released into the Public Domain by the typesetter.
T:This score has been released into the Public Domain by the typesetter.
T:This score has been released into the Public Domain by the typesetter.
T:This score has been released into the Public Domain by the typesetter.
T:This score has been released into the Public Domain by the typesetter.
T:This score has been released into the Public Domain by the typesetter.
C:C. Debussy
Z:This score has been released into the Public Domain by the typesetter.
%%score { ( 1 4 6 ) | ( 2 3 5 ) }
L:1/8
Q:1/4=40
M:4/8
K:Db
V:1 treble nm="Piano" snm="Pno."
V:4 treble 
V:6 treble 
V:2 bass 
V:3 bass 
V:5 bass 
V:1
"^Andantino molto\n(Tempo rubato)"!pp! z/ [G,B,D]/[CFA]/[B,DE]/ z/ [GBd]/[cfa]/[Bde]/ | %1
 [gbd']/[c'f'a']/[bd'e']/[cfa]/ [Bde]/[CFA]/[DE] | %2
 z/ ([F,A,E]/[DFB]/[CEF]/)[I:staff +1] ([B,DF]/!<(![I:staff -1][FAe]/[dfb]/[Bde]/)!<)! | %3
[I:staff +1] ([df]/-!>(![I:staff -1][fae']/[d'f'b']/[c'e'f']/ [bd'f']/[fbd']/[dfb]/[Bdf]/)!>)! | %4
!pp! z/ [G,B,D]/[CFA]/[B,DE]/ z/ [GBd]/[cfa]/[Bde]/ | %5
 [gbd']/[c'f'a']/[bd'e']/[cfa]/ [Bde]/[CFA]/[DE] | %6
 z/ ([F,A,E]/[DFB]/[CEF]/)[I:staff +1] ([B,DF]/!<(![I:staff -1][FAe]/[dfb]/[Bde]/)!<)! | %7
[I:staff +1] ([df]/-!>(![I:staff -1][fae']/[d'f'b']/[c'e'f']/ [bd'f']/[fbd']/[dfb]/[Bdf]/)!>)! | %8
!pp! z/!<(! ([G,CF]/[=G,DE]/[A,=DB]/!pp! [__B,EA]2-)!<)! | %9
 [B,EA]/!pp! [G,CF]/!<(![=G,DE]/[A,=DB]/[__B,EA]/[_B,=Ec]/[_CFB]-!<)! || %10
[M:3/8] [CFB]2-!<(! [CFB-]/[B,DE]/ || %11
[M:4/8] (B/!<)!F/B,/C/) (b'/f'/[I:staff +1][cf]/[I:staff -1]B/) | [FB]4 | %13
 ([_GB]/[FA]/[_FA]/[EG]/ [D=F]/[=CE]/[_CE]/[_B,D]/) |[Q:1/4=36]"^Rit." [__B,D]4 | %15
[Q:1/4=40]"^a Tempo"!8va(! ([e'b'e'']/[d'a'd'']/[bf'b']/[ae'a']/!8va)! [ebe']/[dad']/[Bfb]/[Aea]/ | %16
!<(! [EBe]/[DAd]/[EBe]/[Fcf]/-)!<)!!>(! [Fcf]2!>)! | %17
 [CD]2!p!!<(![I:staff +1] (3(F,/8-A,/8-[I:staff -1]_C/8(3E/8A/8!<)!F/8!>(![C_D]/-[CD])!>)! | %18
!pp!!>(! (!tenuto![c'f'c'']!tenuto![C=D]-) [CD]!>)!!<(![I:staff +1] (3(F,/8!p!A,/8-[I:staff -1]_C/8-(3E/8A/8F/8!<)!!>(![C_D]/)!>)! | %19
[Q:1/4=54]"^Quasi cadenza"[I:staff +1] (6:4:6(F,/4[I:staff -1]_C/4E/4A/4F/4D/4[I:staff +1] (6:4:6^G,/4[I:staff -1]=D/4^F/4=B/4^G/4=E/4[I:staff +1] (6:4:6=B,/4[I:staff -1]=F/4=A/4=d/4B/4=G/4[I:staff +1] (6:4:6D/4[I:staff -1]_A/4d/4g/4d/4_B/4 | %20
[I:staff +1] (6:4:6F/4[I:staff -1]_c/4e/4a/4f/4d/4[I:staff +1] (6:4:6^G/4[I:staff -1]=d/4^f/4=b/4^g/4=e/4[I:staff +1] (6:4:6=B/4[I:staff -1]=f/4=a/4=d'/4b/4=g/4[I:staff +1] (6:4:6d/4[I:staff -1]_a/4d'/4g'/4d'/4_b/4) | %21
[I:staff +1] (6:4:6(f/4a/4[I:staff -1]_c'/4e'/4a'/4b'/4!8va(![I:staff +1] (7:4:7e''/4!8va)![I:staff -1]b'/4a'/4e'/4c'/4[I:staff +1]a/4f/4) (6:4:6(f/4a/4[I:staff -1]c'/4_f'/4a'/4b'/4!8va(![I:staff +1] (7:4:7_f''/4!8va)![I:staff -1]b'/4a'/4f'/4b/4[I:staff +1]a/4f/4) | %22
 (6:4:6(e/4a/4[I:staff -1]_c'/4=f'/4a'/4b'/4!8va(![I:staff +1] (7:4:7f''/4!8va)![I:staff -1]b'/4a'/4f'/4c'/4[I:staff +1]a/4e/4) (6:4:6(=d/4a/4[I:staff -1]c'/4g'/4a'/4b'/4!8va(![I:staff +1] (6:4:6g''/4!8va)![I:staff -1]_c''/4b'/4a'/4g'/4c'/4) | %23
 (3:2:46(b/8a/8g/8_c/8B/8A/8G/8_C/8 G/8A/8B/8c/8g/8a/8b/8_c'/8 g'/8!8va(!a'/8b'/8_c''/8g''/8c''/8b'/8a'/8!8va)! g'/8c'/8b/8a/8g/8c/8B/8A/8 G/8C/8G/8A/8B/8c/8g/8a/8 (6:8:6b/8c'/8g'/8!8va(!a'/8b'/8c''/8) | %24
 (13:16:13(g''/8_c''/8b'/8a'/8!8va)!g'/8_c'/8b/8a/8g/8_c/8B/8A/8G/8 (13:16:13_C/8G/8A/8B/8c/8g/8a/8b/8c'/8g'/8!8va(!a'/8b'/8c''/8) | %25
 (13:16:13(g''/8_c''/8b'/8a'/8!8va)!g'/8_c'/8b/8a/8g/8_c/8B/8A/8G/8 (13:16:13_C/8G/8A/8B/8c/8g/8a/8b/8c'/8g'/8!8va(!a'/8b'/8c''/8) | %26
 (13:16:13(g''/8_c''/8b'/8a'/8!8va)!g'/8_c'/8b/8a/8g/8_c/8B/8A/8G/8 (13:16:13_C/8G/8A/8B/8c/8g/8a/8b/8c'/8g'/8!8va(!a'/8b'/8c''/8) | %27
!8va(! (14:16:14(b''/8a''/8g''/8=c''/8!8va)!!8va)!b'/8a'/8g'/8c'/8b/8a/8g/8c/8B/8A/8 (14:16:14G/8=C/8G/8A/8B/8c/8g/8a/8b/8c'/8g'/8!8va(!a'/8b'/8c''/8) | %28
 (15:16:15(b''/8a''/8g''/8c''/8!8va)!b'/8a'/8g'/8c'/8b/8a/8g/8c/8B/8A/8G/8 (13:16:13C/8G/8A/8B/8c/8g/8a/8b/8c'/8g'/8!8va(!a'/8b'/8c''/8)!8va)! | %29
!8va(! (10:8:12b''/8a''/8g''/8c''/8!8va)!b'/8a'/8g'/8b/8a/8g/8 z3/4 z/!<(! z/ z/4 (g/8a/8b/8d'/8g'/8a'/8f'/4!8va(!f''/4 | %30
 e''/8b'/8a'/8g'/8!8va)!e'/8b/8a/8g/8)!<)! (d'/8b/8a/8g/8d/8B/8A/8G/8)!mf! (3([=E=GBc]/!<(![_E_G=Ad]/[=DF_AB]/!<)!!f![_D=E=Gc]) | %31
!pp!!8va(! (c''/8=g'/8=e'/8c'/8!8va)![I:staff +1]d'/8=g/8=e/8d/8[I:staff -1] c'/8g/8e/8c/8[I:staff +1]d/8=G/8=E/8D/8)!mf![I:staff -1] (3([EGBc]/!<(![_E_G=Ad]/[=DF_AB]/!<)!!f![_D=E=Gc]) | %32
!8va(! (c''/8=g'/8=e'/8c'/8!8va)![I:staff +1]d'/8=g/8=e/8d/8[I:staff -1] c'/8g/8e/8c/8[I:staff +1]d/8=G/8=E/8D/8)[I:staff -1] (3(.C/.D/.B,/-)B, | %33
[Q:1/4=40]"^Rit."!8va(! (c''/8=g'/8=e'/8c'/8!8va)![I:staff +1]d'/8=g/8=e/8d/8[I:staff -1] c'/8g/8e/8c/8[I:staff +1]d/8=G/8=E/8D/8)!p![I:staff -1] (3(.C/!>(!.D/.B,/-B,-!>)! | %34
 B,!tenuto!C!tenuto!D!tenuto!B,) | %35
[Q:1/4=40]"^au Mouvt"!pp! z/ (3(G,/4B,/4D/4(3C/4F/4C/4(3B,/4D/4E/4) z/ (3(G/4B/4d/4(3c/4f/4c/4(3B/4d/4e/4) | %36
 z/ (3(g/4b/4d'/4(3a'/4f'/4c'/4(3b/4d'/4e'/4) z/ (3(e/4d/4B/4(3A/4F/4C/4E/8D/8B,/8G,/8) | %37
 z/!<(! (3(F,/4A,/4E/4(3B/4F/4D/4(3C/4E/4F/4)!<)! z/!<(! (3(F/4A/4e/4(3b/4f/4d/4(3c/4e/4f/4)!<)! | %38
 z/!<(! (3(f/4a/4e'/4(3b'/4f'/4d'/4(3c'/4e'/4f'/4-!<)!!>(! (3f'/4d'/4b/4(3d'/4b/4f/4(3b/4f/4d/4(3f/4d/4B/4)!>)! | %39
!pp! z/ (3(G,/4B,/4D/4(3C/4F/4C/4(3B,/4D/4E/4) z/ (3(G/4B/4d/4(3c/4f/4c/4(3B/4d/4e/4) | %40
 z/ (3(g/4b/4d'/4(3a'/4f'/4c'/4(3b/4d'/4e'/4 z/ (3e/4d/4B/4(3A/4F/4C/4E/8D/8B,/8G,/8) | %41
 z/!<(! (3(F,/4A,/4E/4(3B/4F/4D/4(3C/4E/4F/4)!<)! z/!<(! (3(F/4A/4e/4(3b/4f/4d/4(3c/4e/4f/4)!<)! | %42
 z/!<(! (3(f/4a/4e'/4(3b'/4f'/4d'/4(3c'/4e'/4f'/4-!<)!!>(! (3f'/4d'/4b/4(3d'/4b/4f/4(3b/4f/4d/4(3f/4d/4B/4)!>)! | %43
[Q:1/4=42]"^En animant" (3(f/4"_e     poco     a     poco     cresc."d/4B/4(3d/4B/4F/4(3B/4F/4D/4(3F/4D/4B,/4) (3(F,/4B,/4D/4(3B,/4D/4F/4(3D/4F/4B/4(3F/4B/4d/4) | %44
 (3(f/4_d/4=A/4(3d/4A/4F/4(3A/4F/4D/4(3F/4D/4=A,/4) (3(F,/4B,/4D/4(3B,/4D/4F/4(3D/4F/4B/4(3F/4B/4d/4) | %45
 (3(f/4d/4B/4(3d/4B/4F/4(3B/4F/4D/4(3F/4D/4B,/4) (3(D/4F/4B/4(3F/4B/4d/4(3B/4d/4f/4(3d/4f/4b/4) | %46
 (3(=a/4f/4d/4(3f/4d/4=A/4(3d/4A/4F/4(3A/4F/4D/4) (3(F/4A/4d/4(3A/4d/4f/4(3d/4f/4a/4(3f/4a/4d'/4) | %47
!f! (3(f'/4!<(!d'/4b/4(3d'/4b/4f/4(3b/4f/4d/4(3f/4d/4B/4) (3(F/4B/4d/4(3B/4d/4f/4(3d/4f/4b/4(3f/4b/4d'/4)!<)! || %48
[K:C]!<(![I:staff +1]x/8^C/8F/8A/8[I:staff -1]B/8^c/8f/8a/8[I:staff +1]B/8c/8f/8a/8[I:staff -1]b/8^c'/8f'/8a'/8!<)!!>(! b'/8a'/8f'/8c'/8b/8[I:staff +1]a/8f/8c/8B/8[I:staff -1]a/8f/8c/8B/8[I:staff +1]A/8F/8C/8!>)! | %49
!<(!x/8^C/8F/8A/8[I:staff -1]B/8^c/8f/8a/8[I:staff +1]B/8c/8f/8a/8[I:staff -1]b/8^c'/8f'/8a'/8!<)!!>(! b'/8a'/8f'/8c'/8b/8[I:staff +1]a/8f/8c/8B/8[I:staff -1]a/8f/8c/8B/8[I:staff +1]A/8F/8C/8!>)! || %50
!p![Q:1/4=52]"^au Mouvt"[I:staff -1] z3/2 (f'/ g'>b' | a'/>g'/f'- f'^c') | ^f'4- | f'4 | %54
 z2 z3/4 ([^f^f']/4 [^g^g']/>[bb']/!mf! | [aa']/>[^g^g']/[^f^f']- [ff'][^d^d']) || %56
[K:Eb]!f! [gbe'g']4 |!ff! (3z!<(! ([Bb][cc'] (3[ee'][_d_d'][cc']!<)! | ([Bb][cc'])([Ff][Gg])) | %59
 [_DFGB]4 | F/4_D7/4- D/4E/4F/4G/4=A/4=B/4_d/4e/4 | [_dfg]4 | %62
[Q:1/4=46]"^Rit.""_dim." f/4_d7/4- a/4_d'/4f'/4a'/4!8va(!_c''/4_d''/4e''/4f''/4!8va)! | %63
!p! f/4_d7/4- =a/4_c'/4_d'/4e'/4f'/4g'/4=a'/4=b'/4 | %64
[Q:1/4=46]"^Molto rit."[I:staff +1] _D/4F/4G/4=A/4[I:staff -1]_c/4_d/4e/4f/4[I:staff +1] (D/4F/4G/4A/4[I:staff -1]c/4d/4e/4f/4) || %65
[K:A][Q:1/4=40]"^au Mouv\nt\n(plus lent)"!pp! z3/2 ([cc']/ [dd']>[=f=f']) | %66
 ([gc'e']/4[^fb^d']/4[eac'][Gce]/-!<(! (3[Gce][FB^d][EAc])!<)! | [=g=c'_e'=g']4 | %68
!pp! ([^g^c'=e']/4[fb^d']/4[eac'][Gce]/-!>(! (3[Gce][FB^d][EAc])!>)! || %69
[K:Db] !tenuto![be'g'b']4!pp! | %70
!>(! [B,EG]/[DGB]/[CFA]/[B,EG]/-!>)! (3[B,EG]!>(![I:staff +1][DGB][CFA]!>)! | %71
!pp![Q:1/4=40]"^1o Tempo (en retenant jusqu'à la fin)"[I:staff -1] (3([Bd][cfa][Bde]-) [Bde]2- | %72
 [Bde]4 | (3([Ae][dfb][cef] (3[ae'][d'f'b'][c'e'f'-] | [bd'f'][fbd'][dfb][Bdf]) | %75
 (3([G,B,D][CFA][B,DE]- [B,DE]2-) | [B,DE]4 | (3[F,A,E][DFB][CEF] (3[Ae][dfb][cef] | %78
 (3([ae'][d'f'b'][c'e'f'] (3[bd'f'][fbd'][dfb]) |[Q:1/4=36]"^Rit." F4 | %80
!pp! (F/4!>(!D7/4- D/>E/_C/>D/-)!>)! || %81
[Q:1/4=40]"^Lent (dans une sonroité..." z2 (!arpeggio!!tenuto![aa']2 | %82
 !arpeggio!!tenuto![ff']2 !arpeggio!!tenuto![ee']2 | %83
[Q:1/4=40]"^harmonieuse et lointaine)" (3z2 !tenuto![Bb]2 !tenuto![Ff]2-) | [Ff]2 z2 | %85
 z2 !arpeggio!!tenuto![aa']2 | !arpeggio!!tenuto![ff']2 !arpeggio!!tenuto![ee']2 | %87
 (3z2 (.[Bb]2 .[Ff]2) | (3z2!8va(! (.[bb']2 .[ff']2)!8va)! | (3z2 (.[Bb]2 .[Ff]2) | %90
 (3z2!8va(! (.[bb']2 .[ff']2)!8va)! | z"^m.g." [bb']3- | [bb']4 | %93
[K:bass] !arpeggio!!tenuto![F,F]4[K:treble]!8va(! | [a'a'']4!8va)! |] %95
V:2
 z2 (!tenuto!A2 | !tenuto!F2 !tenuto!E2) | x4 |[K:treble] B2- [Bdf] z |[K:bass] z2 (!tenuto!A2 | %5
 !tenuto!F2 !tenuto!E2) | x4 |[K:treble] B2- [Bdf] z | %8
[K:bass] z/ ([A,,,A,,]/[=A,,,=A,,]/[B,,,B,,]/ [_C,,_C,]2-) | %9
 [C,,C,]/ ([A,,,A,,]/[=A,,,=A,,]/[B,,,B,,]/ [_C,,_C,]/[=C,,=C,]/[D,,D,]-) ||[M:3/8] D,3 || %11
[M:4/8] x3/2[K:treble] [cf]/ x2 |[K:bass] x3/2[K:treble] x/ x2 |[K:bass] (=D,_C,__B,,G,,) | %14
 x[K:treble] x [DE]2 | %15
[K:bass] ([D,,,D,,]/[E,,,E,,]/[F,,,F,,]/[A,,,A,,]/ [B,,,B,,]/[D,,D,]/[E,,E,]/[F,,F,]/ | %16
 [A,,E,A,]/[B,,F,B,]/[A,,E,A,]/[F,,C,F,]/-)!pp! [F,,C,F,]2 | [C,D,]2 F,/[F,A,]/-[F,A,] | %18
 (!tenuto![F,,,C,,F,,]!tenuto![C,=D,]-) [C,D,] F,/-[F,A,]/ | %19
!pp!"_poco        a         poco       cresc.       e            stringendo" (!tenuto!F,!tenuto!^G,!tenuto!=B,!tenuto!=D | %20
[K:treble] !tenuto!F!tenuto!^G!tenuto!=B!tenuto!=d) | !tenuto!f2 !tenuto!_f2 | %22
 !tenuto!e2 !tenuto!=d2 |[K:bass] x4 |!ppp! z3/2!pp!"_doux   et   expressif" (__G,,/ _A,,>C, | %25
 B,,>_A,, (__G,,2 |[K:treble] __E2) _C2) | !tenuto!E4[K:bass] | A,,,4- | %29
 x3/2[K:treble] [Cc]/ [DG-A-B-d]>[FGABf] | [Ee][Dd][K:bass] (3([B,C]/[=A,D]/[_A,B,-]/[=G,B,]) | %31
 x/[K:treble] x/ x/ x/[K:bass] (3([B,C]/[=A,D]/[_A,B,-]/[=G,B,]) | %32
!pp! x/[K:treble] x/ x[K:bass]!p! x2 |!pp! x/[K:treble] x/ x x2[K:bass] |!p! A,,,4 | %35
!ped! z2 (!tenuto!A2!ped-up! |!ped! !tenuto!F2 !tenuto!E2)!ped-up! | A,,2 !tenuto!.[B,DF] z | %38
[K:treble] !tenuto!.[Bdf] z z2 |[K:bass]!ped! z2 (!tenuto!A2!ped-up! | %40
!ped! !tenuto!F2 !tenuto!E2)!ped-up! | A,,2 !tenuto!.[B,DF] z |[K:treble] !tenuto!.[Bdf] z z2 | %43
[K:bass]!p! ([=G,,,=G,,][=A,,,=A,,]- [A,,,A,,]/[G,,,G,,][A,,,A,,]/ | %44
 [_C,,_C,][D,,D,]- [D,,D,]/[E,,E,][F,,F,]/) | ([=G,,=G,][=A,,=A,]- [A,,A,]/[G,,G,][A,,A,]/ | %46
 [_C,_C][D,D]- [D,D]/[E,E][F,F]/) |[K:treble] ([=G,=G][=A,=A]- [A,A]/[G,G][A,A]/) ||[K:C]!f! B,4 | %49
 B,4 ||x/4^C/4F/4A/4B/4^c/4f/4a/4 b/4a/4f/4c/4B/4A/4F/4C/4 | %51
x/4^C/4F/4A/4B/4^c/4f/4a/4 b/4a/4f/4c/4B/4A/4F/4C/4 | %52
!<(!(12:16:12x/8^C/8^F/8A/8^c/8^d/8^f/8[I:staff -1]a/8^c'/8^d'/8^f'/8a'/8!<)!!8va(!!>(![I:staff +1] (12:16:12^c''/8!8va)![I:staff -1]a'/8f'/8d'/8c'/8a/8[I:staff +1]f/8d/8c/8A/8F/8D/8!>)! | %53
!<(!(12:16:12x/8^C/8^F/8A/8^c/8^d/8^f/8[I:staff -1]a/8^c'/8^d'/8^f'/8a'/8!<)!!8va(!!>(![I:staff +1] (12:16:12^c''/8!8va)![I:staff -1]a'/8f'/8d'/8c'/8a/8[I:staff +1]f/8d/8c/8A/8F/8D/8!>)! | %54
x/4=C/4=D/4^F/4A/4c/4d/4^f/4 a/4f/4d/4c/4A/4F/4D/4C/4 | %55
x/4^B,/4^D/4^F/4A/4^B/4^d/4^f/4 a/4f/4d/4B/4A/4F/4D/4=B,/4 || %56
[K:Eb][K:bass]!ped! (3(E,,/4B,,/4E,/4(3B,,/4E,/4G,/4[K:treble] (3B,/4E/4G/4(3B/4e/4g/4 (3b/4g/4e/4(3B/4G/4E/4[K:bass] (3B,/4G,/4E,/4(3B,,/4G,,/4E,,/4)!ped-up! | %57
x/4E,,/4B,,/4E,/4G,/4B,/4[K:treble]E/4G/4 B/4G/4E/4B,/4[K:bass]G,/4E,/4B,,/4E,,/4 | %58
x/4E,,/4B,,/4_D,/4(3:2:6=E,/4G,/4B,/4[K:treble]_D/4=E/4G/4 A/4=D/4_C/4A,/4[K:bass](3A,/=D,/_C,/ | %59
 (3E,,,/E,,/B,,/(3_D,/F,/G,/ (3B,/G,/F,/(3D,/B,,/E,,/ | %60
 G,,,/4G,,/4_D,/4E,/4F,/4G,/4=A,/4=B,/4[I:staff -1] D/>[I:staff +1]E/_C/>D/ | %61
(3(x/E,/B,/(3_D/F/G/[K:treble] (3B/G/F/(3_D/B,/E,/) | %62
x/4_D/4F/4A/4_c/4_d/4e/4f/4[I:staff -1] d/>[I:staff +1]e/_c/>d/ | %63
x/4F/4G/4=A/4_c/4_d/4e/4f/4[I:staff -1] d/>[I:staff +1]e/_c/>d/ |!p! _D2 D2 ||[K:A] A2 [FA]2 | %66
[K:bass]x/8E,,/8A,,/8C,/8E,/8A,/8C/8E/8 z (.E,.A,,) | %67
!ppp! (18:8:18=C,,,/4=C,,/4=G,,/4=C,/4_E,/4[I:staff -1]=G,/4=C/4_E/4=G/4=c/4_e/4=g/4=c'/4_e'/4=g'/4!8va(!=c''/4_e''/4=g''/4[I:staff +1] !tenuto![=C,=G,]2!8va)! | %68
x/8=E,,/8A,,/8^C,/8=E,/8A,/8^C/8=E/8 z (.E,.A,,) || %69
[K:Db]x/8A,,/8E,/8G,/8B,/8[K:treble]E/8G/8B/8 z[K:bass] (E,A,,) | z2 (3x[K:treble] x x | %71
 z2 ([aa']2 | [ff']2 [ee']2) | (3:2:2F- [DF]2 (3:2:2f- [df]2- | [df] z z2 | %75
[K:bass] A,,2[K:treble] x2 | [Ff]2 [Ee]2 |[K:bass] x2 [B,DF]2 |[K:treble] [Bdf]2 z2 | z4 | z4 || %81
[K:bass]!ppp! z2 !tenuto!A2 | !tenuto!F2 !tenuto!E2 | (3z2 !tenuto!B,2 !tenuto!F,2- | F,2 x2 | %85
 z2 !tenuto!A2 | !tenuto!F2 !tenuto!E2 | (3z2 (.B,2 .F,2) | (3z2!8va(! (.B2 .F2)!8va)! | %89
 (3z2 (.B,2 .F,2) | (3z2!8va(! (.B2 .F2)!8va)! | [E,A,]4- | [E,A,]4 | !arpeggio!!tenuto![A,A]4 | %94
 D,,,4 |] %95
V:3
 [D,,A,,]4 | x2 z3/2 (A,,/- | [D,,A,,]4) |[K:treble] x4 |[K:bass] A,,D,,- D,,2 | x2 z3/2 (A,,/- | %6
 [D,,A,,]4) |[K:treble] x4 |[K:bass] x4 | x4 ||[M:3/8] (D,,2- D,,/G,,/ || %11
[M:4/8] [A,,G,]4)[K:treble] |[K:bass] !arpeggio![=D,,=G,,F,]4[K:treble] |[K:bass] x4 | %14
 [E,,A,,]4[K:treble] |[K:bass] x4 | x2 (!tenuto![F,,,C,,]!tenuto![C,=D,]-) | x4 | x4 | x4 | %20
[K:treble] x4 | x4 | x4 |[K:bass] x4 | !tenuto!A,,,4- | (A,,,4 |[K:treble] (F,4) | %27
 F,2)[K:bass] !tenuto!A,,,2- | x4 | (A,,,4[K:treble] | (F,2)[K:bass] A,,,>)!tenuto!A,,,- | %31
 A,,,2-[K:treble][K:bass] A,,,>!tenuto!A,,,- | A,,,2-[K:treble][K:bass] A,,,>A,,,- | %33
 A,,,3[K:treble][K:bass]!pp! A,,,- | x4 | (A,,D,,-) D,,2 | x2 z3/2 (A,,/- | D,,2) x2 | %38
[K:treble] x4 |[K:bass] (A,,D,,-) D,,2 | z2 z3/2 (A,,/- | D,,2) x2 |[K:treble] x4 |[K:bass] x4 | %44
 x4 | x4 | x4 |[K:treble] [B,DF]4 ||[K:C] x4 | x4 || B,4 | B,4 | B,4 | B,4 | B,4 | ^G,4 || %56
[K:Eb][K:bass] E,,,4[K:treble][K:bass] | E,,,4[K:treble][K:bass] | E,,,4[K:treble][K:bass] | %59
 E,,,2 x2 | G,,,2 x2 | E,,4[K:treble] | A,4 | _D4 | x4 ||[K:A] (!tenuto!GF =FD) |[K:bass] A,,,4 | %67
 =C,,,2 x2 | A,,,4 ||[K:Db] A,,,4[K:treble][K:bass] | x8/3[K:treble] x4/3 | [B,EG]4- | [B,EG]4 | %73
 (3(D/-C/ B,2 (3d/-c/ B2-) | B x x2 |[K:bass] A,,(D,,[K:treble] B,2-) | B,4 |[K:bass] [D,,A,,]4 | %78
[K:treble] z2 (3:2:6z!p! F/=G/(3B/=A/G/ | x4 | x4 ||[K:bass] [__B,,,D,,__B,,]4- | [B,,,D,,B,,]4 | %83
 [G,,,D,,G,,]4- | [G,,,D,,G,,]2 z2 | !arpeggio![__B,,,D,,__B,,]4- | [B,,,D,,B,,]4 | [G,,,D,,G,,]4 | %88
 [E,,,B,,,E,,]4 | [G,,,D,,G,,]4 | [E,,,B,,,E,,]4 | [D,,,A,,,D,,]4- | [D,,,A,,,D,,]4 | z D,,,3- | %94
 x4 |] %95
V:4
 x4 | x3 B,/G,/ | x4 | x4 | x4 | x3 B,/G,/ | x4 | x4 | x4 | x4 ||[M:3/8] x3 ||[M:4/8] [=CFB]4 | %12
 C/=D/B,/[I:staff +1][C=G]/[I:staff -1] c/=d/B/[I:staff +1][c=g]/ | %13
[I:staff -1] _C__B, G,[I:staff +1]_F, | (G,/A,/[DE]/-G/ A/[I:staff -1][de]/g/a/) | %15
!8va(! x2!8va)! x2 | x2 (!tenuto![c'=d'c'']!tenuto![C=D]-) | x4 | x4 | x4 | x4 | %21
 x!8va(! x9/64!8va)! x37/20!8va(! x9/64!8va)! x13/15 | %22
 x!8va(! x9/64!8va)! x37/20!8va(! x/6!8va)! x27/32 | %23
 x17/12!8va(! x7/12!8va)! x107/64!8va(! x11/32 | x37/60!8va)! x187/64!8va(! x15/32 | %25
 x37/60!8va)! x187/64!8va(! x15/32 | x37/60!8va)! x187/64!8va(! x15/32 | %27
!8va(! x17/30!8va)!!8va)! x119/40!8va(! x11/24 | x8/15!8va)! x3!8va(! x15/32!8va)! | %29
!8va(! x2/5!8va)! x67/20!8va(! x/4 | x/!8va)! x7/2 |!8va(! x/!8va)! x7/2 |!8va(! x/!8va)! x7/2 | %33
!8va(! x/!8va)! x7/2 | x4 | x4 | x4 | x4 | x4 | x4 | x4 | x4 | x4 | x4 | x4 | x4 | x4 | x4 || %48
[K:C] x4 | x4 || x2 x [^c'f'] | x4 | x4 | x4 | x2 x [=c'=d'] | [^b^d']4 || %56
[K:Eb] z/!<(! (3(G,/4B,/4E/4 (3G/4B/4e/4(3g/4b/4e'/4!<)!!>(! (3g'/4e'/4b/4(3g/4e/4B/4 (3G/4E/4B,/4G,/4)!>)! z/4 | %57
 (3:2:2x [eg]2 [gb]2 | [_d=eg]2 [_c_e]2 | B,C (3E_DC | _C4 | Bc (3e_dc | _c4 | g4 | x4 || %65
[K:A] c2 [=fa]2 | x4 | x2 z2 | x4 ||[K:Db] z [fbd']/4[eac']/4[dgb]/- [dgb]/[DGB]/[CFA]/[B,EG]/- | %70
 x4 | x4 | x4 | x4 | x4 | x4 | x4 | x4 | x4 | F/4!>(!D7/4- D/>E/_C/>D/!>)! | x4 || [__B,D]4- | %82
 [B,D]4 | [_B,E]4- | [B,E]2 x2 | !arpeggio![__B,D]4- | [B,D]4 | E4 | D4 | E4 | D4 | !tenuto!E4- | %92
 [EB]4 |[K:bass] z[K:treble]!8va(! [a'a'']3- | x4!8va)! |] %95
V:5
 x4 | x4 | x4 |[K:treble] x4 |[K:bass] (A,,2 x2) | x4 | x4 |[K:treble] x4 |[K:bass] x4 | x4 || %10
[M:3/8] x3 ||[M:4/8] x3/2[K:treble] x5/2 |[K:bass] x3/2[K:treble] x5/2 |[K:bass] x4 | %14
 D,4[K:treble] |[K:bass] x4 | x4 | x4 | x4 | x4 |[K:treble] x4 | x4 | x4 |[K:bass] x4 | x4 | x4 | %26
[K:treble] x4 | x2[K:bass] x2 | x4 | x3/2[K:treble] x5/2 | [GAB]2[K:bass] x2 | %31
 x/[K:treble] x3/2[K:bass] x2 | x/[K:treble] x3/2[K:bass] x2 | x/[K:treble] x5/2[K:bass] x | x4 | %35
 A,,2 x2 | x4 | x4 |[K:treble] x4 |[K:bass] A,,2 x2 | x4 | x4 |[K:treble] x4 |[K:bass] x4 | x4 | %45
 x4 | x4 |[K:treble] x4 ||[K:C] x4 | x4 || x4 | x4 | x2!8va(! x/6!8va)! x11/6 | %53
 x2!8va(! x/6!8va)! x11/6 | x4 | x4 ||[K:Eb][K:bass] x[K:treble] x2[K:bass] x | %57
 x3/2[K:treble] x3/2[K:bass] x | x3/2[K:treble] x3/2[K:bass] x | x4 | x4 | x2[K:treble] x2 | x4 | %63
 x4 | x4 ||[K:A] x4 |[K:bass] x4 | x27/16!8va(! x11/32!8va)! x2 | x4 || %69
[K:Db] x5/8[K:treble] x11/8[K:bass] x2 | x8/3[K:treble] x4/3 | x4 | x4 | x4 | x4 | %75
[K:bass] z2[K:treble] [Aa]2 | x4 |[K:bass] x4 |[K:treble] x4 | x4 | x4 ||[K:bass] x4 | x4 | x4 | %84
 x4 | x4 | x4 | x4 | x4/3!8va(! x8/3!8va)! | x4 | x4/3!8va(! x8/3!8va)! | x4 | x4 | x4 | x4 |] %95
V:6
 x4 | x4 | x4 | x4 | x4 | x4 | x4 | x4 | x2 z/ (.a'/.e'/.a/ | .e/) x/ x z z/!pp! (.b'/ || %10
[M:3/8] .f'/.b/.f/.B/.F/) x/ ||[M:4/8] x4 | x2 [fb]2 | x4 |[I:staff +1] G,4 |!8va(! x2!8va)! x2 | %16
 x4 | x4 | x4 | x4 | x4 | x!8va(! x9/64!8va)! x37/20!8va(! x9/64!8va)! x13/15 | %22
 x!8va(! x9/64!8va)! x37/20!8va(! x/6!8va)! x27/32 | %23
 x17/12!8va(! x7/12!8va)! x107/64!8va(! x11/32 | x37/60!8va)! x187/64!8va(! x15/32 | %25
 x37/60!8va)! x187/64!8va(! x15/32 | x37/60!8va)! x187/64!8va(! x15/32 | %27
!8va(! x17/30!8va)!!8va)! x119/40!8va(! x11/24 | x8/15!8va)! x3!8va(! x15/32!8va)! | %29
!8va(! x2/5!8va)! x67/20!8va(! x/4 | x/!8va)! x7/2 |!8va(! x/!8va)! x7/2 |!8va(! x/!8va)! x7/2 | %33
!8va(! x/!8va)! x7/2 | x4 | x4 | x4 | x4 | x4 | x4 | x4 | x4 | x4 | x4 | x4 | x4 | x4 | x4 || %48
[K:C] x4 | x4 || x4 | x4 | x4 | x4 | x4 | x4 ||[K:Eb] x4 | x4 | x4 | x4 | x4 | x4 | %62
 x3!8va(! x!8va)! | x4 | x4 ||[K:A][I:staff -1] gf x2 | x4 | x161/40 | x4 ||[K:Db] x4 | x4 | x4 | %72
 x4 | x4 | x4 | x4 | x4 | x4 | x4 | x4 | x4 ||[I:staff +1] D,4- | D,4 | E,4- | E,2[I:staff -1] x2 | %85
[I:staff +1] D,4- | D,4 | [E,B,]4 | [D,A,]4 | [E,B,]4 | [D,A,]4 |[I:staff -1] x B3- | x4 | %93
[K:bass] x[K:treble]!8va(! x3 | x4!8va)! |] %95

